48x48/apps/oggconvert.svg

<svg xmlns="http://www.w3.org/2000/svg" width="48" height="48" version="1">
 <rect style="opacity:0.2" width="40" height="40" x="4" y="5" rx="12" ry="12"/>
 <rect style="fill:#81d547" width="40" height="40" x="4" y="4" rx="12" ry="12"/>
 <path opacity=".2" d="m24.026 12c2.735 0.006 5.5083 0.85839 7.6746 2.5456 1.5229 1.7544-1.3789 3.6333-2.6858 1.9226-3.9343-2.3806-9.4829-1.5424-12.443 2.0167-1.5749 1.7662-2.4622 4.1231-2.4518 6.4891h2.6l-4.16 6.24-4.16-6.24h2.6c-0.083-5.649 3.98-11.023 9.435-12.486 1.17-0.321 2.376-0.501 3.591-0.488zm11.414 6.76 4.16 6.24h-2.6c0.0737 5.7169-4.093 11.151-9.6433 12.537-3.7452 1.0459-7.9801 0.2827-11.058-2.1101-1.5705-1.7837 1.3716-3.6445 2.6907-1.9181 3.8119 2.3127 9.1499 1.5792 12.159-1.724 1.742-1.795 2.744-4.283 2.731-6.785h-2.6l4.16-6.24z"/>
 <path fill="#fff" d="m24.026 11c2.735 0.006 5.5083 0.85839 7.6746 2.5456 1.5229 1.7544-1.3789 3.6333-2.6858 1.9226-3.9343-2.3806-9.4829-1.5424-12.443 2.0167-1.5749 1.7662-2.4622 4.1231-2.4518 6.4891h2.6l-4.16 6.24-4.16-6.24h2.6c-0.083-5.649 3.98-11.023 9.435-12.486 1.17-0.321 2.376-0.501 3.591-0.488zm11.414 6.76 4.16 6.24h-2.6c0.0737 5.7169-4.093 11.151-9.6433 12.537-3.7452 1.0459-7.9801 0.2827-11.058-2.1101-1.5705-1.7837 1.3716-3.6445 2.6907-1.9181 3.8119 2.3127 9.1499 1.5792 12.159-1.724 1.742-1.795 2.744-4.283 2.731-6.785h-2.6l4.16-6.24z"/>
 <circle opacity=".2" cx="36" cy="37" r="11"/>
 <circle fill="#8561c5" cx="36" cy="36" r="11"/>
 <path fill="#fff" d="m32 29v8.1875c-0.316-0.114-0.644-0.188-1-0.188-1.6568 0-3 1.3432-3 3s1.3432 3 3 3 3-1.3432 3-3v-7h6v4.1875c-0.316-0.114-0.644-0.188-1-0.188-1.6568 0-3 1.3432-3 3s1.3432 3 3 3 3-1.3432 3-3v-11h-1z"/>
 <path style="fill:#f4f4f7;opacity:0.2" d="M 16 4 C 9.352 4 4 9.352 4 16 L 4 17 C 4 10.352 9.352 5 16 5 L 32 5 C 38.648 5 44 10.352 44 17 L 44 16 C 44 9.352 38.648 4 32 4 L 16 4 z"/>
</svg>

<svg xmlns="http://www.w3.org/2000/svg" width="48" height="48" version="1"><rect style="opacity:.2" width="40" height="40" x="4" y="5" rx="12" ry="12"/><rect style="fill:#81d547" width="40" height="40" x="4" y="4" rx="12" ry="12"/><path opacity=".2" d="M24.026 12c2.735.006 5.508.858 7.675 2.546 1.523 1.754-1.38 3.633-2.686 1.922-3.934-2.38-9.483-1.542-12.443 2.017a9.781 9.781 0 0 0-2.452 6.489h2.6l-4.16 6.24-4.16-6.24H11c-.083-5.649 3.98-11.023 9.435-12.486A13.053 13.053 0 0 1 24.026 12zm11.414 6.76L39.6 25H37c.074 5.717-4.093 11.151-9.643 12.537-3.746 1.046-7.98.283-11.058-2.11-1.57-1.784 1.371-3.645 2.69-1.918 3.812 2.312 9.15 1.579 12.16-1.724A9.78 9.78 0 0 0 33.878 25h-2.6l4.16-6.24z"/><path fill="#fff" d="M24.026 11c2.735.006 5.508.858 7.675 2.546 1.523 1.754-1.38 3.633-2.686 1.922-3.934-2.38-9.483-1.542-12.443 2.017a9.781 9.781 0 0 0-2.452 6.489h2.6l-4.16 6.24-4.16-6.24H11c-.083-5.649 3.98-11.023 9.435-12.486A13.053 13.053 0 0 1 24.026 11zm11.414 6.76L39.6 24H37c.074 5.717-4.093 11.151-9.643 12.537-3.746 1.046-7.98.283-11.058-2.11-1.57-1.784 1.371-3.645 2.69-1.918 3.812 2.312 9.15 1.579 12.16-1.724A9.78 9.78 0 0 0 33.878 24h-2.6l4.16-6.24z"/><circle opacity=".2" cx="36" cy="37" r="11"/><circle fill="#8561c5" cx="36" cy="36" r="11"/><path fill="#fff" d="M32 29v8.188a2.912 2.912 0 0 0-1-.189 3 3 0 1 0 3 3v-7h6v4.188a2.912 2.912 0 0 0-1-.188 3 3 0 1 0 3 3v-11h-1z"/><path style="fill:#f4f4f7;opacity:.2" d="M16 4C9.352 4 4 9.352 4 16v1C4 10.352 9.352 5 16 5h16c6.648 0 12 5.352 12 12v-1c0-6.648-5.352-12-12-12H16z"/></svg>
